X: 38975
T: Swallow's Nest, The
R: reel
M: 4/4
K: Gmajor
G3A GEDE|G2BG AedB|AE3 A2 (3Bcd|e2fa gedB|
G3A GEDE|G2 (3Bcd efge|dG3 EGDG|1 FGAF GcBA:|2 FGAF G2 z2||
eg3 edBA|GEDE G2 (3Bcd|eaag aged|B3d e3g|
dg3 agba|aged e2ge|dG3 EGDG|FGAF G2 z2:|

